X:62
T:Invirtita
O:rumania
C:Roemenie
M:10/8
L:1/8
Q:1/4=136
K:G
V:1
D EF2  |:"G" GA3 B2 dc3 |"G" B2 z4 DE F2 |GA3 B2 dc3 |
B2 z4 Bc ^c2 |dd3 "E" e3 e3 |d^c de d3/2 c3/2 B3/2 A3/2 |"Am" A^G AB c3/2 d3/2 B3/2 c3/2 |
"Am" AB3 c3 ^c3 |"D" dd3 e3 e3 |d^c de d3/2 c3/2 B3/2 A3/2 |"G" GF GA B3/2 c3/2 d3/2 e3/2 |
dB cA BG2 AF2 |"G" G4 z2 B"D7" A F2 |1 "G" G4 z2 DE F2 :|2 "G" G4 z2 G/A/B/c/ d/e/=f/f/ || |:
"C" g2 f2 e3 _e3 |e_e e_e e3 f3 |gf gf "F#" ag fe3 |"G" d4 "G#" H=f6 |
ed cB A^G2 AB2 |cB cB "E7" c3 "A7" ^c3 |d^c de dB2 cA2 |1 "G" G4 B3 d3 :|2
"G" G4 z2 B"D" A F2 |"G" G4 z2 |]





